X: 1286
T: Kürdî Aranağme (Nîmsofyan)
C: ?
O: Turkey
F: http://compmusic.upf.edu/node/140
N: kurdi--aranagme--nimsofyan--1--
N: makam= kurdi
N: form= aranagme
N: usul= nimsofyan = 2/4
M: 2/4
L: 1/16
K: C _B   
Q: 1/4=90
%%MIDI tuningsystem comma53
A2d2 z4  | A2d2 z4  | cded c2B2  | A2AA A2A2  | \
w:  ARANAĞME  |   |   |   | 
A2d2 z4  | A2d2 z4  | 
w:  ARANAĞME  |   | 
cded c2B2  | A4 z4  | z2d4e2  | z2c4d2  | z2B4c2  | \
w:   |   |   |   |   | 
A2AA A2A2  | 
w:   | 
z2d4e2  | z2c4d2  | z2B4c2  | A4 z4  | |


